svgs/atomic.svg

<svg width="198" height="192" viewBox="0 0 198 192" fill="none" xmlns="http://www.w3.org/2000/svg">
<path d="M158.556 71.3334V161.778C158.556 163.958 157.701 166.05 156.18 167.591C154.659 169.133 152.596 170 150.445 170H53.1111C50.9599 170 48.8968 169.133 47.3757 167.591C45.8546 166.05 45 163.958 45 161.778V30.2222C45 28.0415 45.8546 25.9502 47.3757 24.4082C48.8968 22.8663 50.9599 22 53.1111 22H109.889M158.556 71.3334L109.889 22M158.556 71.3334H109.889V22" stroke="black" stroke-width="12" stroke-linecap="round" stroke-linejoin="round"/>
<path d="M63.7692 39H58.2308C57.551 39 57 39.5585 57 40.2477V45.8619C57 46.551 57.551 47.1096 58.2308 47.1096H63.7692C64.449 47.1096 65 46.551 65 45.8619V40.2477C65 39.5585 64.449 39 63.7692 39Z" stroke="black" stroke-width="6" stroke-linejoin="round"/>
<path d="M63.7692 57.2466H58.2308C57.551 57.2466 57 57.8051 57 58.4942V64.1085C57 64.7976 57.551 65.3562 58.2308 65.3562H63.7692C64.449 65.3562 65 64.7976 65 64.1085V58.4942C65 57.8051 64.449 57.2466 63.7692 57.2466Z" stroke="black" stroke-width="6" stroke-linejoin="round"/>
<path d="M63.7692 75.4931H58.2308C57.551 75.4931 57 76.0517 57 76.7408V82.3551C57 83.0442 57.551 83.6027 58.2308 83.6027H63.7692C64.449 83.6027 65 83.0442 65 82.3551V76.7408C65 76.0517 64.449 75.4931 63.7692 75.4931Z" stroke="black" stroke-width="6" stroke-linejoin="round"/>
<path d="M63.7692 93.7397H58.2308C57.551 93.7397 57 94.2983 57 94.9874V100.602C57 101.291 57.551 101.849 58.2308 101.849H63.7692C64.449 101.849 65 101.291 65 100.602V94.9874C65 94.2983 64.449 93.7397 63.7692 93.7397Z" stroke="black" stroke-width="6" stroke-linejoin="round"/>
<path d="M63.7692 111.986H58.2308C57.551 111.986 57 112.545 57 113.234V118.848C57 119.537 57.551 120.096 58.2308 120.096H63.7692C64.449 120.096 65 119.537 65 118.848V113.234C65 112.545 64.449 111.986 63.7692 111.986Z" stroke="black" stroke-width="6" stroke-linejoin="round"/>
<path d="M63.7692 130.233H58.2308C57.551 130.233 57 130.791 57 131.481V137.095C57 137.784 57.551 138.342 58.2308 138.342H63.7692C64.449 138.342 65 137.784 65 137.095V131.481C65 130.791 64.449 130.233 63.7692 130.233Z" stroke="black" stroke-width="6" stroke-linejoin="round"/>
<path d="M63.7692 148.479H58.2308C57.551 148.479 57 149.038 57 149.727V155.341C57 156.03 57.551 156.589 58.2308 156.589H63.7692C64.449 156.589 65 156.03 65 155.341V149.727C65 149.038 64.449 148.479 63.7692 148.479Z" stroke="black" stroke-width="6" stroke-linejoin="round"/>
<path d="M81.7692 57.2466H76.2308C75.551 57.2466 75 57.8051 75 58.4942V64.1085C75 64.7976 75.551 65.3562 76.2308 65.3562H81.7692C82.449 65.3562 83 64.7976 83 64.1085V58.4942C83 57.8051 82.449 57.2466 81.7692 57.2466Z" stroke="black" stroke-width="6" stroke-linejoin="round"/>
<path d="M81.7692 75.4931H76.2308C75.551 75.4931 75 76.0517 75 76.7408V82.3551C75 83.0442 75.551 83.6027 76.2308 83.6027H81.7692C82.449 83.6027 83 83.0442 83 82.3551V76.7408C83 76.0517 82.449 75.4931 81.7692 75.4931Z" stroke="black" stroke-width="6" stroke-linejoin="round"/>
<path d="M114.37 160.991C122.63 160.991 129.326 144.801 129.326 124.831C129.326 104.86 122.63 88.6712 114.37 88.6712C106.11 88.6712 99.4135 104.86 99.4135 124.831C99.4135 144.801 106.11 160.991 114.37 160.991Z" stroke="black" stroke-width="6" stroke-linecap="round" stroke-linejoin="round"/>
<path d="M121.848 137.96C138.909 127.975 149.392 114.003 145.262 106.752C141.132 99.4998 123.953 101.716 106.892 111.701C89.8308 121.686 79.3481 135.659 83.478 142.91C87.608 150.162 104.787 147.946 121.848 137.96Z" stroke="black" stroke-width="6" stroke-linecap="round" stroke-linejoin="round"/>
<path d="M145.262 142.91C149.392 135.659 138.909 121.686 121.848 111.7C104.787 101.716 87.608 99.4994 83.478 106.751C79.348 114.003 89.8308 127.975 106.892 137.96C123.953 147.945 141.132 150.162 145.262 142.91Z" stroke="black" stroke-width="6" stroke-linecap="round" stroke-linejoin="round"/>
</svg>

<svg width="198" height="192" viewBox="0 0 198 192" fill="none" xmlns="http://www.w3.org/2000/svg"><path d="M158.556 71.333v90.445c0 2.18-.855 4.272-2.376 5.813a8.056 8.056 0 0 1-5.735 2.409H53.111a8.056 8.056 0 0 1-5.735-2.409A8.277 8.277 0 0 1 45 161.778V30.222a8.28 8.28 0 0 1 2.376-5.814A8.056 8.056 0 0 1 53.11 22h56.778m48.667 49.333L109.889 22m48.667 49.333h-48.667V22" stroke="#000" stroke-width="12" stroke-linecap="round" stroke-linejoin="round"/><path d="M63.77 39h-5.54c-.679 0-1.23.559-1.23 1.248v5.614c0 .689.551 1.248 1.23 1.248h5.54c.679 0 1.23-.559 1.23-1.248v-5.614A1.24 1.24 0 0 0 63.77 39ZM63.77 57.247h-5.54c-.679 0-1.23.558-1.23 1.247v5.615c0 .689.551 1.247 1.23 1.247h5.54c.679 0 1.23-.558 1.23-1.247v-5.615a1.24 1.24 0 0 0-1.23-1.247ZM63.77 75.493h-5.54c-.679 0-1.23.559-1.23 1.248v5.614c0 .69.551 1.248 1.23 1.248h5.54c.679 0 1.23-.559 1.23-1.248v-5.614a1.24 1.24 0 0 0-1.23-1.248ZM63.77 93.74h-5.54c-.679 0-1.23.558-1.23 1.247v5.615c0 .689.551 1.247 1.23 1.247h5.54c.679 0 1.23-.558 1.23-1.247v-5.615a1.24 1.24 0 0 0-1.23-1.247ZM63.77 111.986h-5.54c-.679 0-1.23.559-1.23 1.248v5.614a1.24 1.24 0 0 0 1.23 1.248h5.54c.679 0 1.23-.559 1.23-1.248v-5.614a1.24 1.24 0 0 0-1.23-1.248ZM63.77 130.233h-5.54c-.679 0-1.23.558-1.23 1.248v5.614c0 .689.551 1.247 1.23 1.247h5.54c.679 0 1.23-.558 1.23-1.247v-5.614c0-.69-.551-1.248-1.23-1.248ZM63.77 148.479h-5.54c-.679 0-1.23.559-1.23 1.248v5.614a1.24 1.24 0 0 0 1.23 1.248h5.54c.679 0 1.23-.559 1.23-1.248v-5.614a1.24 1.24 0 0 0-1.23-1.248ZM81.77 57.247h-5.54c-.679 0-1.23.558-1.23 1.247v5.615c0 .689.551 1.247 1.23 1.247h5.54c.679 0 1.23-.558 1.23-1.247v-5.615a1.24 1.24 0 0 0-1.23-1.247ZM81.77 75.493h-5.54c-.679 0-1.23.559-1.23 1.248v5.614c0 .69.551 1.248 1.23 1.248h5.54c.679 0 1.23-.559 1.23-1.248v-5.614a1.24 1.24 0 0 0-1.23-1.248Z" stroke="#000" stroke-width="6" stroke-linejoin="round"/><path d="M114.37 160.991c8.26 0 14.956-16.19 14.956-36.16 0-19.971-6.696-36.16-14.956-36.16s-14.957 16.189-14.957 36.16c0 19.97 6.697 36.16 14.957 36.16Z" stroke="#000" stroke-width="6" stroke-linecap="round" stroke-linejoin="round"/><path d="M121.848 137.96c17.061-9.985 27.544-23.957 23.414-31.208-4.13-7.252-21.309-5.036-38.37 4.949-17.061 9.985-27.544 23.958-23.414 31.209 4.13 7.252 21.309 5.036 38.37-4.95Z" stroke="#000" stroke-width="6" stroke-linecap="round" stroke-linejoin="round"/><path d="M145.262 142.91c4.13-7.251-6.353-21.224-23.414-31.21-17.061-9.984-34.24-12.2-38.37-4.949-4.13 7.252 6.353 21.224 23.414 31.209s34.24 12.202 38.37 4.95Z" stroke="#000" stroke-width="6" stroke-linecap="round" stroke-linejoin="round"/></svg>
